assets/images/cards/unknown.svg

<svg width="135" height="100" viewBox="0 0 135 100" fill="none" xmlns="http://www.w3.org/2000/svg"><path d="M113.269 1.10297L4.53898 27.4846C2.03217 28.0929 0.493074 30.6181 1.10131 33.1249L16.0892 94.8966C16.6975 97.4034 19.2227 98.9425 21.7295 98.3342L130.46 71.9526C132.967 71.3443 134.506 68.8191 133.897 66.3123L118.909 4.54063C118.301 2.03383 115.776 0.494731 113.269 1.10297Z" fill="#EEEEEE"/><path d="M120.072 9.33369L2.26367 37.918L4.72899 48.0786L122.537 19.4943L120.072 9.33369Z" fill="#271B3D"/></svg>

<svg xmlns="http://www.w3.org/2000/svg" width="135" height="100" viewBox="0 0 135 100" fill="none"><path fill="#EEE" d="M113.27 1.1 4.54 27.48a4.67 4.67 0 0 0-3.44 5.64L16.1 94.9a4.67 4.67 0 0 0 5.64 3.43l108.73-26.38a4.67 4.67 0 0 0 3.44-5.64l-15-61.77a4.67 4.67 0 0 0-5.63-3.44Z"/><path fill="#271B3D" d="M120.07 9.33 2.27 37.92l2.46 10.16 117.8-28.59-2.46-10.16Z"/></svg>
